svg/Outline/chatbubbles.svg

<svg viewBox="0 0 24 24" xmlns="http://www.w3.org/2000/svg" width="24" height="24"><path d="M2.17 11.22a.9.9 0 0 1 1.73.5q-.27.92-.28 1.92v.28q.11 1.97 1.15 3.5l.15.2.1.15c.18.3.3.67.25 1.08l-.04.21a5 5 0 0 1-.66 1.5 11 11 0 0 0 3.42.55l.42-.01q1.47-.06 2.82-.48l.09-.02a.9.9 0 0 1 .44 1.74l-.45.13q-1.37.37-2.83.43h-.5q-2.14 0-4.08-.66l-.54-.2c-1-.38-1.02-1.54-.53-2.14l.11-.14q.36-.49.53-1.08A8.5 8.5 0 0 1 1.83 14v-.36q0-1.26.34-2.42"/><path fill-rule="evenodd" d="M14.12 1a8.89 8.89 0 0 1 7.33 13.92c-.17.25-.26.37-.3.5q-.06.17-.06.36c0 .13.04.22.1.4q.22.7.6 1.27c.28.4.41.6.42.75q0 .18-.11.34c-.1.1-.27.17-.64.3A13.8 13.8 0 0 1 9.9 17.7 8.89 8.89 0 0 1 14.12 1m-.36 1.81a7.1 7.1 0 0 0-6.73 7.08v.25a7.1 7.1 0 0 0 3.72 5.98l.02.02.03.01a12 12 0 0 0 8.95 1.31q-.16-.35-.28-.74c-.05-.15-.16-.46-.17-.88-.01-.33.04-.7.15-1l.06-.16c.15-.35.36-.65.46-.78a7 7 0 0 0 1.24-4.01l-.01-.37a7.1 7.1 0 0 0-7.08-6.72z" clip-rule="evenodd"/></svg>

<svg viewBox="0 0 24 24" xmlns="http://www.w3.org/2000/svg" width="24" height="24"><path d="M2.17 11.22A.9 .9 0 0 1 3.9 11.72Q3.63 12.64 3.62 13.64L3.62 13.92Q3.73 15.89 4.77 17.42L5.02 17.77C5.2 18.07 5.32 18.44 5.27 18.85L5.23 19.06A5 5 0 0 1 4.57 20.56A11 11 0 0 0 7.99 21.11L8.41 21.1Q9.88 21.04 11.23 20.62L11.32 20.6A.9 .9 0 0 1 11.76 22.34L11.31 22.47Q9.94 22.84 8.48 22.9L7.98 22.9Q5.84 22.9 3.9 22.24L3.36 22.04C2.36 21.66 2.34 20.5 2.83 19.9L2.94 19.76Q3.3 19.27 3.47 18.68A8.5 8.5 0 0 1 1.83 14L1.83 13.64Q1.83 12.38 2.17 11.22"/><path fill-rule="evenodd" d="M14.12 1a8.89 8.89 0 0 1 7.33 13.92c-.17.25-.26.37-.3.5q-.06.17-.06.36c0 .13.04.22.1.4q.22.7.6 1.27c.28.4.41.6.42.75q0 .18-.11.34c-.1.1-.27.17-.64.3A13.8 13.8 0 0 1 9.9 17.7 8.89 8.89 0 0 1 14.12 1M13.76 2.81A7.1 7.1 0 0 0 7.03 9.89L7.03 10.14A7.1 7.1 0 0 0 10.75 16.12L10.8 16.15A12 12 0 0 0 19.75 17.46Q19.59 17.11 19.47 16.72C19.42 16.57 19.31 16.26 19.3 15.84C19.29 15.51 19.34 15.14 19.45 14.84L19.51 14.68C19.66 14.33 19.87 14.03 19.97 13.9A7 7 0 0 0 21.21 9.89L21.2 9.52A7.1 7.1 0 0 0 14.12 2.8Z" clip-rule="evenodd"/></svg>
